X:1690
T:St. Sebastian
A:Wyresdale, Lancashire
B:E and J Winder, 1835-41
L:1/8
M:6/8
O:England
Z:Richard Robinson 
%%TUNEURL: http://www.leeds.ac.uk/music/Info/RRTuneBk/gettune/00001274.html
%%ID:00001274
K:C
E | G2G GEG | c2c cGc | d2d {e}d^cd | e2e c2 \
G | G2G GEG | c2c cGc |  d2d {e}d^cd | ccc c2 ||
g | g2g ecg | g2g fdg  | g2g c'2a  | {g}^fef g2 \
g | g2g ecg | g2g =fdg | g2g (ba)b | c'2-c'2 ::
g | e2g e2g | (fd).g  ec.g  | e2g e2g | gfe d2 \
g | e2g e2g | (fd).g (ec).g | e2g e2g | fed c2 :|
